static/assets/images/partner/zeit.svg

<svg height="77" viewBox="0 0 180 77" width="180" xmlns="http://www.w3.org/2000/svg" xmlns:xlink="http://www.w3.org/1999/xlink"><linearGradient id="a" x1="114.720775%" x2="39.539931%" y1="181.283245%" y2="100%"><stop offset="0" stop-color="#fff"/><stop offset="1"/></linearGradient><g fill="none" transform="translate(21 25)"><path d="m15.5 0 15.5 28h-31z" fill="url(#a)"/><path d="m52 21h12.4069038v-2.1400709h-9.3127615l9.1610878-12.99113477v-1.86879433h-12.1035565v2.14007092h9.0094143l-9.1610879 12.99113478zm25.3901674 0h11.1328452v-2.1400709h-8.6150628v-5.4556738h7.4926778v-2.1400709h-7.4926778v-5.12411348h8.6150628v-2.14007092h-11.1328452zm24.5407946 0h10.859833v-2.1400709h-4.155858v-12.71985818h4.155858v-2.14007092h-10.859833v2.14007092h4.186193v12.71985818h-4.186193zm28.726988 0h2.517782v-14.85992908h5.824268v-2.14007092h-14.105649v2.14007092h5.763599z" fill="#333"/></g></svg>

<?xml version="1.0" encoding="UTF-8"?>
<svg width="180px" height="77px" viewBox="0 0 180 77" version="1.1" xmlns="http://www.w3.org/2000/svg" xmlns:xlink="http://www.w3.org/1999/xlink">
    <!-- Generator: Sketch 51.3 (57544) - http://www.bohemiancoding.com/sketch -->
    <title>Artboard</title>
    <desc>Created with Sketch.</desc>
    <defs>
        <linearGradient x1="114.720775%" y1="181.283245%" x2="39.5399306%" y2="100%" id="linearGradient-1">
            <stop stop-color="#FFFFFF" offset="0%"></stop>
            <stop stop-color="#000000" offset="100%"></stop>
        </linearGradient>
    </defs>
    <g id="Artboard" stroke="none" stroke-width="1" fill="none" fill-rule="evenodd">
        <g id="zeit" transform="translate(21.000000, 25.000000)" fill-rule="nonzero">
            <polygon id="Triangle" fill="url(#linearGradient-1)" points="15.5 0 31 28 0 28"></polygon>
            <path d="M52,21 L64.4069038,21 L64.4069038,18.8599291 L55.0941423,18.8599291 L64.2552301,5.86879433 L64.2552301,4 L52.1516736,4 L52.1516736,6.14007092 L61.1610879,6.14007092 L52,19.1312057 L52,21 Z M77.3901674,21 L88.5230126,21 L88.5230126,18.8599291 L79.9079498,18.8599291 L79.9079498,13.4042553 L87.4006276,13.4042553 L87.4006276,11.2641844 L79.9079498,11.2641844 L79.9079498,6.14007092 L88.5230126,6.14007092 L88.5230126,4 L77.3901674,4 L77.3901674,21 Z M101.930962,21 L112.790795,21 L112.790795,18.8599291 L108.634937,18.8599291 L108.634937,6.14007092 L112.790795,6.14007092 L112.790795,4 L101.930962,4 L101.930962,6.14007092 L106.117155,6.14007092 L106.117155,18.8599291 L101.930962,18.8599291 L101.930962,21 Z M130.65795,21 L133.175732,21 L133.175732,6.14007092 L139,6.14007092 L139,4 L124.894351,4 L124.894351,6.14007092 L130.65795,6.14007092 L130.65795,21 Z" id="ZEIT" fill="#333333"></path>
        </g>
    </g>
</svg>
